design/img/getlocus.svg

<svg width="232" height="70" viewBox="0 0 232 89" fill="none" xmlns="http://www.w3.org/2000/svg">
<path fill-rule="evenodd" clip-rule="evenodd" d="M33.1706 1.93434C37.6807 -0.642827 43.2386 -0.642827 47.7486 1.93434C55.0751 6.12169 66.3059 12.5362 73.6325 16.7235C78.1425 19.3007 80.9192 24.0612 80.9192 29.2156V58.7895C80.9192 63.9439 78.1425 68.7044 73.6325 71.2816C66.3059 75.4689 55.0751 81.8834 47.7486 86.0708C43.2386 88.6479 37.6807 88.6479 33.1706 86.0708C25.8441 81.8834 14.6133 75.4689 7.28675 71.2816C2.77675 68.7044 0 63.9439 0 58.7895V29.2112C0 24.0612 2.77675 19.2963 7.28675 16.7191C14.6133 12.5362 25.8441 6.11732 33.1706 1.93434Z" fill="#FFD700"/>
<path fill-rule="evenodd" clip-rule="evenodd" d="M23.1072 59.3319L17.9561 56.3697V38.2901C17.9561 33.3458 20.6223 28.7734 24.951 26.3013C31.6585 22.4683 40.7714 17.2615 40.7714 17.2615C40.7714 17.2615 49.8842 22.4683 56.5918 26.3013C60.9205 28.7734 63.5867 33.3458 63.5867 38.2901V56.3697C63.5867 56.3697 54.5357 61.5415 47.8371 65.3701C43.4641 67.8685 38.0786 67.8729 33.6969 65.3876" fill="white"/>
<path d="M40.7535 69.6491C37.8971 69.6491 35.0364 68.9228 32.4851 67.4745C31.3222 66.8138 30.9199 65.3392 31.5875 64.1885C32.2552 63.0377 33.7453 62.6395 34.9081 63.3002C38.5206 65.3567 43.0085 65.348 46.6209 63.2871L61.159 54.9824V38.2899C61.159 34.2163 58.9438 30.4228 55.38 28.3838L40.7711 20.0397L26.1667 28.3882C22.6029 30.4228 20.3877 34.2207 20.3877 38.2943V54.9912L24.3273 57.2577C25.4902 57.9271 25.8837 59.3973 25.2072 60.5481C24.5307 61.6988 23.0451 62.0882 21.8822 61.4188L16.731 58.4566C15.9838 58.0278 15.5195 57.2314 15.5195 56.3738V38.2899C15.5195 32.5011 18.6677 27.1105 23.7304 24.2183L39.5508 15.1785C40.3025 14.7497 41.231 14.7497 41.9827 15.1785L57.8031 24.2183C62.8658 27.1105 66.0139 32.5011 66.0139 38.2899V56.3695C66.0139 57.2271 65.5497 58.0234 64.798 58.4522L49.0483 67.4526C46.4971 68.914 43.6231 69.6447 40.7535 69.6491Z" fill="black"/>
<path d="M63.2373 57.6384C62.9941 57.6384 62.7465 57.5771 62.521 57.4459L40.0815 44.6257C39.635 44.3719 39.3652 43.9037 39.3652 43.3962V17.7514C39.3652 16.9682 40.0108 16.3293 40.8022 16.3293C41.5937 16.3293 42.2393 16.9682 42.2393 17.7514V42.5736L63.9624 54.9869C64.6478 55.3806 64.8866 56.247 64.4886 56.9296C64.2145 57.3846 63.7325 57.6384 63.2373 57.6384Z" fill="black"/>
<path d="M18.3625 57.6383C17.8673 57.6383 17.3809 57.3845 17.1156 56.9251C16.7177 56.2469 16.952 55.3762 17.6418 54.9824L40.0813 42.1622C40.7666 41.7684 41.6465 42.0003 42.0445 42.6829C42.4424 43.3611 42.2081 44.2318 41.5183 44.6256L19.0788 57.4458C18.8533 57.5771 18.6057 57.6383 18.3625 57.6383Z" fill="black"/>
<path fill-rule="evenodd" clip-rule="evenodd" d="M27.3039 60.0231L35.046 64.438L27.4586 67.7634L19.5617 67.6277L16.1836 64.5518L24.9737 59.3931L27.3039 60.0231Z" fill="white"/>
<path d="M15.6438 66.0305C15.1485 66.0305 14.6622 65.7768 14.3969 65.3173C13.9989 64.6391 14.2333 63.7684 14.923 63.3746L23.9519 58.2159C24.6372 57.8221 25.5171 58.054 25.9151 58.7366C26.313 59.4148 26.0787 60.2855 25.3889 60.6793L16.3601 65.838C16.1346 65.9693 15.8869 66.0305 15.6438 66.0305Z" fill="black"/>
<path d="M24.4906 70.4806C22.8413 70.4806 21.4088 70.2312 20.237 69.903C16.7396 68.9186 14.7454 67.0327 14.5288 66.8227C13.5737 65.8863 13.5693 64.3637 14.5111 63.4186C15.4529 62.4778 16.9828 62.4691 17.9378 63.3879C18.1943 63.6286 23.5311 68.4591 32.3035 63.2654C33.4575 62.5828 34.9476 62.9547 35.6374 64.0968C36.3271 65.2388 35.9513 66.7133 34.7973 67.3959C30.8488 69.7412 27.3425 70.4806 24.4906 70.4806Z" fill="black"/>
<path d="M110.326 53.8886C110.15 54.7112 109.769 55.4813 109.186 56.1945C108.602 56.9077 107.758 57.5071 106.652 58.0016C105.547 58.496 104.07 58.7454 102.213 58.7454C101.421 58.7454 100.612 58.6491 99.7898 58.4522C98.9674 58.2553 98.2157 57.9534 97.5392 57.5378C96.8627 57.1221 96.3012 56.5926 95.8502 55.9451C95.4036 55.2975 95.1472 54.5187 95.0853 53.6086H99.4936C99.7014 54.4312 100.108 55.0043 100.714 55.3238C101.32 55.6432 102.014 55.8007 102.81 55.8007C104.061 55.8007 104.972 55.4288 105.542 54.6893C106.113 53.9455 106.391 53.0091 106.369 51.8759V49.7712H106.307C105.83 50.6157 105.144 51.2414 104.26 51.644C103.376 52.0465 102.443 52.2478 101.461 52.2478C100.254 52.2478 99.2106 52.0378 98.3351 51.6133C97.4597 51.1889 96.7389 50.6113 96.1774 49.8806C95.6159 49.1499 95.2047 48.2923 94.9438 47.3122C94.6829 46.3321 94.5547 45.2951 94.5547 44.2056C94.5547 43.173 94.705 42.1798 95.0101 41.2215C95.3108 40.2633 95.7529 39.4188 96.3366 38.6837C96.9202 37.953 97.6454 37.3711 98.5076 36.9379C99.3698 36.5047 100.369 36.2903 101.492 36.2903C102.553 36.2903 103.486 36.4872 104.291 36.8767C105.091 37.2705 105.763 37.9268 106.307 38.8544H106.369V36.7191H110.587V51.6877C110.592 52.3353 110.503 53.066 110.326 53.8886ZM104.247 48.5724C104.724 48.323 105.122 47.9948 105.436 47.5835C105.75 47.1722 105.984 46.704 106.139 46.1746C106.294 45.6495 106.374 45.0982 106.374 44.5207C106.374 43.86 106.312 43.2386 106.188 42.6479C106.064 42.0616 105.856 41.5409 105.564 41.0859C105.273 40.6308 104.888 40.272 104.406 40.0051C103.928 39.7382 103.323 39.6026 102.593 39.6026C101.97 39.6026 101.43 39.7251 100.984 39.9745C100.537 40.2239 100.161 40.5565 99.8606 40.9809C99.5599 41.4053 99.3388 41.8866 99.2062 42.4335C99.0691 42.9805 99.0028 43.5537 99.0028 44.1487C99.0028 44.7263 99.0603 45.2995 99.1752 45.8639C99.2902 46.4327 99.4892 46.9403 99.7677 47.3954C100.051 47.8504 100.418 48.2179 100.878 48.5067C101.337 48.7955 101.908 48.9399 102.598 48.9399C103.217 48.9399 103.769 48.8174 104.247 48.5724Z" fill="black"/>
<path d="M118.904 48.8787C119.572 49.5175 120.527 49.8369 121.778 49.8369C122.676 49.8369 123.445 49.6138 124.091 49.1718C124.736 48.7299 125.134 48.2617 125.28 47.7629H129.185C128.561 49.6794 127.602 51.0533 126.311 51.8759C125.019 52.6985 123.454 53.1142 121.624 53.1142C120.35 53.1142 119.205 52.9129 118.188 52.5103C117.167 52.1078 116.305 51.5346 115.593 50.7951C114.885 50.0513 114.337 49.1675 113.952 48.1348C113.568 47.1022 113.373 45.969 113.373 44.7307C113.373 43.5362 113.572 42.4204 113.966 41.3922C114.359 40.3596 114.925 39.4714 115.655 38.7188C116.384 37.9662 117.255 37.3755 118.263 36.9423C119.276 36.5091 120.394 36.2947 121.624 36.2947C122.999 36.2947 124.197 36.5573 125.218 37.0823C126.24 37.6074 127.08 38.3162 127.734 39.2001C128.389 40.0883 128.862 41.099 129.154 42.2323C129.445 43.3655 129.547 44.5513 129.468 45.7896H117.812C117.874 47.2116 118.237 48.2398 118.904 48.8787ZM123.923 40.469C123.392 39.8914 122.583 39.6026 121.5 39.6026C120.792 39.6026 120.204 39.7208 119.736 39.957C119.267 40.1933 118.891 40.4865 118.613 40.8365C118.33 41.1865 118.135 41.5585 118.02 41.9479C117.905 42.3417 117.839 42.6917 117.817 42.998H125.037C124.82 41.891 124.453 41.0465 123.923 40.469Z" fill="black"/>
<path d="M140.968 36.7279V39.6639H137.718V47.5791C137.718 48.323 137.842 48.8174 138.094 49.0624C138.346 49.3118 138.846 49.4344 139.593 49.4344C139.845 49.4344 140.084 49.4256 140.314 49.4037C140.544 49.3819 140.76 49.3512 140.968 49.3118V52.7116C140.592 52.7729 140.177 52.8166 139.717 52.8341C139.257 52.856 138.811 52.8647 138.373 52.8647C137.687 52.8647 137.033 52.8166 136.418 52.7247C135.804 52.6328 135.264 52.4535 134.796 52.1822C134.327 51.9153 133.956 51.5346 133.686 51.0358C133.416 50.5414 133.279 49.8894 133.279 49.0887V39.6639H130.591V36.7279H133.279V31.9324H137.718V36.7279H140.968Z" fill="black"/>
<path d="M149.718 30.6328V48.6336H160.595V52.716H144.814V30.6328H149.718Z" fill="black"/>
<path d="M162.342 41.2565C162.735 40.2152 163.301 39.3269 164.031 38.5962C164.76 37.8655 165.636 37.2967 166.657 36.8942C167.678 36.4916 168.824 36.2903 170.093 36.2903C171.362 36.2903 172.516 36.4916 173.546 36.8942C174.576 37.2967 175.456 37.8655 176.185 38.5962C176.915 39.3269 177.477 40.2152 177.875 41.2565C178.268 42.2979 178.467 43.4574 178.467 44.7351C178.467 46.0127 178.268 47.1678 177.875 48.2005C177.477 49.2331 176.915 50.1125 176.185 50.8433C175.456 51.574 174.576 52.1384 173.546 52.5278C172.516 52.9172 171.362 53.1141 170.093 53.1141C168.819 53.1141 167.674 52.9172 166.657 52.5278C165.636 52.1384 164.76 51.574 164.031 50.8433C163.301 50.1125 162.739 49.2287 162.342 48.2005C161.944 47.1678 161.749 46.0171 161.749 44.7351C161.749 43.4574 161.948 42.2979 162.342 41.2565ZM166.374 46.6078C166.498 47.216 166.714 47.7629 167.015 48.2486C167.316 48.7343 167.718 49.1193 168.218 49.4081C168.717 49.6969 169.341 49.8413 170.093 49.8413C170.844 49.8413 171.472 49.6969 171.985 49.4081C172.493 49.1193 172.9 48.7343 173.205 48.2486C173.506 47.7629 173.723 47.216 173.846 46.6078C173.97 45.9996 174.032 45.3739 174.032 44.7351C174.032 44.0962 173.97 43.4662 173.846 42.8492C173.723 42.2323 173.506 41.6853 173.205 41.2084C172.905 40.7359 172.498 40.3464 171.985 40.0489C171.472 39.7514 170.844 39.5982 170.093 39.5982C169.341 39.5982 168.717 39.747 168.218 40.0489C167.718 40.3464 167.316 40.7359 167.015 41.2084C166.714 41.681 166.498 42.2279 166.374 42.8492C166.25 43.4662 166.188 44.0962 166.188 44.7351C166.188 45.3739 166.25 45.9996 166.374 46.6078Z" fill="black"/>
<path d="M189.061 39.6026C188.354 39.6026 187.757 39.7645 187.279 40.0839C186.802 40.4033 186.408 40.8146 186.107 41.3222C185.807 41.8297 185.59 42.3854 185.466 42.9936C185.342 43.6018 185.281 44.2056 185.281 44.8007C185.281 45.3782 185.342 45.9646 185.466 46.564C185.59 47.1634 185.793 47.7016 186.076 48.1873C186.359 48.673 186.74 49.0668 187.217 49.3775C187.695 49.6881 188.278 49.8413 188.968 49.8413C190.029 49.8413 190.847 49.5481 191.422 48.9618C191.992 48.3755 192.355 47.5879 192.501 46.5946H196.781C196.489 48.7168 195.658 50.3357 194.283 51.4514C192.908 52.5628 191.148 53.1229 189.003 53.1229C187.796 53.1229 186.687 52.9216 185.674 52.5191C184.662 52.1165 183.804 51.5564 183.096 50.8345C182.389 50.1125 181.836 49.2506 181.438 48.2529C181.04 47.251 180.846 46.1571 180.846 44.9582C180.846 43.7199 181.027 42.5736 181.394 41.5103C181.757 40.4471 182.296 39.5326 183.003 38.7581C183.711 37.9837 184.578 37.3798 185.599 36.951C186.62 36.5222 187.788 36.3035 189.101 36.3035C190.06 36.3035 190.98 36.426 191.869 36.6754C192.753 36.9248 193.544 37.2967 194.243 37.8043C194.942 38.3118 195.508 38.9375 195.945 39.6901C196.383 40.4427 196.631 41.3353 196.697 42.3635H192.355C192.05 40.5214 190.958 39.6026 189.061 39.6026Z" fill="black"/>
<path d="M210.219 52.716V50.4888H210.126C209.564 51.4165 208.835 52.0859 207.937 52.4972C207.04 52.9085 206.124 53.1141 205.187 53.1141C203.998 53.1141 203.025 52.961 202.264 52.6503C201.504 52.3397 200.902 51.9021 200.469 51.3377C200.031 50.7733 199.722 50.0819 199.549 49.2637C199.373 48.4499 199.284 47.5485 199.284 46.5597V36.7279H203.723V45.7589C203.723 47.0803 203.931 48.0648 204.347 48.7124C204.763 49.36 205.505 49.6881 206.567 49.6881C207.774 49.6881 208.649 49.3337 209.193 48.6205C209.732 47.9117 210.006 46.739 210.006 45.1114V36.7279H214.446V52.716H210.219Z" fill="black"/>
<path d="M221.547 48.743C221.746 49.0843 221.998 49.36 222.312 49.5787C222.626 49.7975 222.984 49.955 223.391 50.0601C223.797 50.1651 224.217 50.2132 224.655 50.2132C224.969 50.2132 225.296 50.1782 225.641 50.1038C225.986 50.0338 226.295 49.92 226.578 49.7625C226.861 49.6094 227.096 49.4037 227.281 49.1456C227.467 48.8874 227.564 48.5636 227.564 48.1698C227.564 47.5091 227.122 47.0147 226.238 46.6865C225.354 46.3584 224.12 46.0258 222.533 45.6977C221.887 45.5533 221.255 45.3826 220.64 45.1857C220.026 44.9889 219.477 44.7307 219 44.4113C218.522 44.0919 218.133 43.6893 217.841 43.2036C217.55 42.718 217.404 42.1273 217.404 41.4272C217.404 40.3946 217.607 39.5501 218.014 38.8938C218.421 38.2375 218.956 37.7124 219.623 37.3317C220.291 36.9511 221.038 36.6842 221.874 36.5266C222.705 36.3735 223.563 36.2947 224.434 36.2947C225.305 36.2947 226.158 36.3779 226.981 36.5441C227.803 36.7104 228.537 36.9861 229.183 37.3799C229.828 37.7737 230.363 38.29 230.792 38.9419C231.221 39.5939 231.473 40.4121 231.557 41.4009H227.339C227.277 40.5565 226.954 39.9833 226.371 39.6857C225.787 39.3882 225.097 39.2394 224.306 39.2394C224.058 39.2394 223.784 39.257 223.492 39.2876C223.2 39.3182 222.935 39.3838 222.696 39.4889C222.458 39.5939 222.254 39.7426 222.086 39.9352C221.918 40.132 221.834 40.3946 221.834 40.7227C221.834 41.1165 221.98 41.4316 222.272 41.681C222.564 41.9304 222.944 42.1317 223.413 42.2848C223.881 42.4379 224.416 42.578 225.022 42.7005C225.628 42.823 226.242 42.9586 226.866 43.103C227.511 43.2474 228.139 43.4224 228.758 43.6281C229.373 43.8337 229.921 44.1094 230.399 44.4463C230.876 44.7876 231.265 45.2076 231.557 45.7152C231.849 46.2227 231.995 46.8441 231.995 47.5879C231.995 48.638 231.783 49.5219 231.354 50.2307C230.925 50.9395 230.368 51.5127 229.682 51.9459C228.997 52.3791 228.21 52.681 227.321 52.856C226.437 53.031 225.535 53.1185 224.62 53.1185C223.682 53.1185 222.767 53.0266 221.869 52.8385C220.972 52.6547 220.176 52.3441 219.477 51.9109C218.779 51.4777 218.204 50.9045 217.757 50.1957C217.311 49.4869 217.063 48.5943 217.023 47.5223H221.242C221.25 47.9948 221.348 48.4017 221.547 48.743Z" fill="black"/>
</svg>

<svg xmlns="http://www.w3.org/2000/svg" width="232" height="70" fill="none" viewBox="0 0 232 89"><path fill="gold" fill-rule="evenodd" d="M33.17 1.934a14.71 14.71 0 0 1 14.579 0c7.326 4.188 18.557 10.602 25.883 14.79 4.51 2.577 7.287 7.337 7.287 12.492v29.573c0 5.155-2.776 9.915-7.287 12.493-7.326 4.187-18.557 10.601-25.883 14.789a14.71 14.71 0 0 1-14.578 0c-7.327-4.188-18.558-10.602-25.884-14.79C2.777 68.705 0 63.945 0 58.79V29.211c0-5.15 2.777-9.915 7.287-12.492C14.613 12.536 25.844 6.117 33.17 1.934Z" clip-rule="evenodd"/><path fill="#fff" fill-rule="evenodd" d="m23.107 59.332-5.15-2.962V38.29c0-4.944 2.665-9.517 6.994-11.989l15.82-9.04 15.82 9.04c4.33 2.472 6.996 7.045 6.996 11.99V56.37l-15.75 9a14.308 14.308 0 0 1-14.14.018" clip-rule="evenodd"/><path fill="#000" d="M40.754 69.65c-2.857 0-5.718-.727-8.269-2.175a2.396 2.396 0 0 1-.898-3.286 2.45 2.45 0 0 1 3.321-.889c3.613 2.057 8.1 2.048 11.713-.013l14.538-8.305V38.29c0-4.074-2.215-7.867-5.779-9.906L40.771 20.04l-14.604 8.348c-3.564 2.035-5.78 5.833-5.78 9.906v16.697l3.94 2.267a2.39 2.39 0 0 1 .88 3.29 2.443 2.443 0 0 1-3.325.87l-5.151-2.961a2.408 2.408 0 0 1-1.212-2.083V38.29c0-5.789 3.149-11.18 8.211-14.072l15.82-9.04a2.46 2.46 0 0 1 2.433 0l15.82 9.04c5.063 2.892 8.21 8.283 8.21 14.072v18.08c0 .857-.463 1.653-1.215 2.082l-15.75 9a16.751 16.751 0 0 1-8.294 2.197Z"/><path fill="#000" d="M63.237 57.638a1.42 1.42 0 0 1-.716-.192l-22.44-12.82a1.41 1.41 0 0 1-.716-1.23V17.751c0-.783.646-1.422 1.437-1.422.792 0 1.437.64 1.437 1.422v24.823l21.723 12.413c.686.394.925 1.26.527 1.943a1.46 1.46 0 0 1-1.252.708Z"/><path fill="#000" d="M18.363 57.638c-.496 0-.982-.253-1.247-.713a1.412 1.412 0 0 1 .526-1.943l22.44-12.82a1.443 1.443 0 0 1 1.962.52 1.412 1.412 0 0 1-.526 1.944l-22.44 12.82a1.42 1.42 0 0 1-.715.192Z"/><path fill="#fff" fill-rule="evenodd" d="m27.304 60.023 7.742 4.415-7.587 3.325-7.897-.135-3.378-3.076 8.79-5.159 2.33.63Z" clip-rule="evenodd"/><path fill="#000" d="M15.644 66.03c-.495 0-.982-.253-1.247-.713a1.412 1.412 0 0 1 .526-1.942l9.029-5.16a1.443 1.443 0 0 1 1.963.522 1.412 1.412 0 0 1-.526 1.942l-9.029 5.159a1.42 1.42 0 0 1-.716.193Z"/><path fill="#000" d="M24.49 70.48c-1.649 0-3.081-.249-4.253-.577-3.497-.984-5.492-2.87-5.708-3.08a2.392 2.392 0 0 1-.018-3.404 2.454 2.454 0 0 1 3.427-.031c.256.24 5.593 5.071 14.366-.123a2.443 2.443 0 0 1 3.333.832 2.39 2.39 0 0 1-.84 3.299c-3.948 2.345-7.454 3.085-10.306 3.085ZM110.326 53.889c-.176.822-.557 1.592-1.14 2.305-.584.714-1.428 1.313-2.534 1.808-1.105.494-2.582.743-4.439.743-.792 0-1.601-.096-2.423-.293a7.685 7.685 0 0 1-2.25-.914 5.616 5.616 0 0 1-1.69-1.593c-.446-.648-.703-1.426-.765-2.336h4.409c.207.822.614 1.395 1.22 1.715.606.32 1.3.477 2.096.477 1.251 0 2.162-.372 2.732-1.112.571-.743.849-1.68.827-2.813V49.77h-.062a4.384 4.384 0 0 1-2.047 1.873 6.677 6.677 0 0 1-2.799.604c-1.207 0-2.25-.21-3.126-.635a5.944 5.944 0 0 1-2.158-1.732c-.561-.731-.972-1.589-1.233-2.569-.261-.98-.39-2.017-.39-3.106 0-1.033.151-2.026.456-2.985.3-.958.743-1.802 1.327-2.537a6.441 6.441 0 0 1 2.17-1.746c.863-.433 1.862-.648 2.985-.648 1.061 0 1.994.197 2.799.587.8.393 1.472 1.05 2.016 1.977h.062V36.72h4.218v14.969c.005.647-.084 1.378-.261 2.2Zm-6.079-5.317c.477-.249.875-.577 1.189-.989.314-.41.548-.879.703-1.408a5.813 5.813 0 0 0 .235-1.654 9.08 9.08 0 0 0-.186-1.873 4.642 4.642 0 0 0-.624-1.562 3.172 3.172 0 0 0-1.158-1.08c-.478-.268-1.083-.403-1.813-.403-.623 0-1.163.122-1.609.371-.447.25-.823.583-1.123 1.007-.301.424-.522.906-.655 1.453a7.038 7.038 0 0 0-.203 1.715c0 .577.057 1.15.172 1.715a4.68 4.68 0 0 0 .593 1.531c.283.455.65.823 1.11 1.112.459.288 1.03.433 1.72.433.619 0 1.171-.123 1.649-.368ZM118.904 48.879c.668.639 1.623.958 2.874.958.898 0 1.667-.223 2.313-.665.645-.442 1.043-.91 1.189-1.41h3.905c-.624 1.917-1.583 3.291-2.874 4.114-1.292.823-2.857 1.238-4.687 1.238-1.274 0-2.419-.201-3.436-.604a7.226 7.226 0 0 1-2.595-1.715 7.712 7.712 0 0 1-1.641-2.66c-.384-1.033-.579-2.166-.579-3.404 0-1.195.199-2.31.593-3.339a7.752 7.752 0 0 1 1.689-2.673 7.961 7.961 0 0 1 2.608-1.777c1.013-.433 2.131-.647 3.361-.647 1.375 0 2.573.262 3.594.787a7.143 7.143 0 0 1 2.516 2.118 8.716 8.716 0 0 1 1.42 3.032 11.32 11.32 0 0 1 .314 3.558h-11.656c.062 1.422.425 2.45 1.092 3.089Zm5.019-8.41c-.531-.578-1.34-.866-2.423-.866-.708 0-1.296.118-1.764.354-.469.236-.845.53-1.123.88a3.2 3.2 0 0 0-.593 1.11 5.092 5.092 0 0 0-.203 1.051h7.22c-.217-1.107-.584-1.951-1.114-2.529ZM140.968 36.728v2.936h-3.25v7.915c0 .744.124 1.238.376 1.483.252.25.752.372 1.499.372a7.096 7.096 0 0 0 1.375-.123v3.4c-.376.062-.791.106-1.251.123-.46.022-.906.03-1.344.03-.686 0-1.34-.047-1.955-.14-.614-.091-1.154-.27-1.622-.542a2.846 2.846 0 0 1-1.11-1.146c-.27-.495-.407-1.147-.407-1.947v-9.425h-2.688v-2.936h2.688v-4.796h4.439v4.796h3.25ZM149.718 30.633v18h10.877v4.083h-15.781V30.633h4.904ZM162.342 41.257c.393-1.042.959-1.93 1.689-2.66a7.597 7.597 0 0 1 2.626-1.703c1.021-.402 2.167-.604 3.436-.604 1.269 0 2.423.202 3.453.604 1.03.403 1.91.971 2.639 1.702.73.73 1.292 1.62 1.69 2.66.393 1.042.592 2.201.592 3.48 0 1.277-.199 2.432-.592 3.465-.398 1.032-.96 1.911-1.69 2.642a7.349 7.349 0 0 1-2.639 1.685c-1.03.39-2.184.586-3.453.586-1.274 0-2.419-.197-3.436-.586a7.374 7.374 0 0 1-2.626-1.685c-.73-.73-1.292-1.614-1.689-2.643-.398-1.032-.593-2.183-.593-3.465 0-1.278.199-2.437.593-3.478Zm4.032 5.35c.124.609.34 1.156.641 1.642.301.485.703.87 1.203 1.16.499.288 1.123.432 1.875.432.751 0 1.379-.144 1.892-.433a3.395 3.395 0 0 0 1.22-1.16 4.954 4.954 0 0 0 .641-1.64 9.558 9.558 0 0 0 0-3.759 4.81 4.81 0 0 0-.641-1.64 3.502 3.502 0 0 0-1.22-1.16c-.513-.298-1.141-.45-1.892-.45-.752 0-1.376.148-1.875.45-.5.297-.902.687-1.203 1.16a4.76 4.76 0 0 0-.641 1.64 9.558 9.558 0 0 0 0 3.759ZM189.061 39.603c-.707 0-1.304.161-1.782.48-.477.32-.871.732-1.172 1.24a5.367 5.367 0 0 0-.641 1.67 8.678 8.678 0 0 0 0 3.57c.124.6.327 1.139.61 1.624.283.486.664.88 1.141 1.19.478.311 1.061.464 1.751.464 1.061 0 1.879-.293 2.454-.88.57-.585.933-1.373 1.079-2.366h4.28c-.292 2.122-1.123 3.74-2.498 4.856-1.375 1.112-3.135 1.672-5.28 1.672-1.207 0-2.316-.201-3.329-.604-1.012-.402-1.87-.963-2.578-1.684a7.747 7.747 0 0 1-1.658-2.582c-.398-1.002-.592-2.096-.592-3.295 0-1.238.181-2.384.548-3.448a7.734 7.734 0 0 1 1.609-2.752 7.297 7.297 0 0 1 2.596-1.807c1.021-.429 2.189-.648 3.502-.648.959 0 1.879.123 2.768.372.884.25 1.675.622 2.374 1.13a6.064 6.064 0 0 1 1.702 1.885c.438.753.686 1.645.752 2.674h-4.342c-.305-1.843-1.397-2.761-3.294-2.761ZM210.219 52.716v-2.227h-.093c-.562.928-1.291 1.597-2.189 2.008a6.532 6.532 0 0 1-2.75.617c-1.189 0-2.162-.153-2.923-.464-.76-.31-1.362-.748-1.795-1.312-.438-.565-.747-1.256-.92-2.074a12.813 12.813 0 0 1-.265-2.704v-9.832h4.439v9.03c0 1.322.208 2.307.624 2.954.416.648 1.158.976 2.22.976 1.207 0 2.082-.354 2.626-1.068.539-.708.813-1.881.813-3.509v-8.383h4.44v15.988h-4.227ZM221.547 48.743c.199.341.451.617.765.836.314.218.672.376 1.079.481a5.02 5.02 0 0 0 1.264.153c.314 0 .641-.035.986-.11.345-.07.654-.183.937-.34.283-.154.518-.36.703-.617.186-.259.283-.582.283-.976 0-.66-.442-1.155-1.326-1.483-.884-.329-2.118-.661-3.705-.99a21.82 21.82 0 0 1-1.893-.511 6.5 6.5 0 0 1-1.64-.775 3.792 3.792 0 0 1-1.159-1.207c-.291-.486-.437-1.077-.437-1.777 0-1.032.203-1.877.61-2.533a4.496 4.496 0 0 1 1.609-1.562 7.192 7.192 0 0 1 2.251-.805 14.14 14.14 0 0 1 2.56-.232c.871 0 1.724.083 2.547.25.822.165 1.556.441 2.202.835.645.394 1.18.91 1.609 1.562.429.652.681 1.47.765 2.459h-4.218c-.062-.845-.385-1.418-.968-1.715-.584-.298-1.274-.447-2.065-.447-.248 0-.522.018-.814.049a2.65 2.65 0 0 0-.796.2 1.72 1.72 0 0 0-.61.447c-.168.197-.252.46-.252.788 0 .394.146.709.438.958.292.25.672.45 1.141.604.468.153 1.003.293 1.609.416.606.122 1.22.258 1.844.402.645.144 1.273.32 1.892.525a6.303 6.303 0 0 1 1.641.818c.477.342.866.762 1.158 1.27.292.507.438 1.128.438 1.872 0 1.05-.212 1.934-.641 2.643a5.151 5.151 0 0 1-1.672 1.715c-.685.433-1.472.735-2.361.91a13.888 13.888 0 0 1-5.452-.017 7.266 7.266 0 0 1-2.392-.928 5.351 5.351 0 0 1-1.72-1.715c-.446-.71-.694-1.602-.734-2.674h4.219c.008.473.106.88.305 1.221Z"/></svg>
